src/images/Tools/Figma.svg

<svg fill="none" height="50" viewBox="0 0 50 50" width="50" xmlns="http://www.w3.org/2000/svg" xmlns:xlink="http://www.w3.org/1999/xlink"><clipPath id="a"><path d="m0 0h50v50h-50z"/></clipPath><g clip-path="url(#a)"><path d="m0 0h50v50h-50z" fill="#252525"/><path d="m18.8333 43.0002c3.22 0 5.8334-2.6133 5.8334-5.8333v-5.8334h-5.8334c-3.22 0-5.8333 2.6134-5.8333 5.8334s2.6133 5.8333 5.8333 5.8333z" fill="#0acf83"/><path d="m13 25.4998c0-3.22 2.6133-5.8333 5.8333-5.8333h5.8334v11.6666h-5.8334c-3.22 0-5.8333-2.6133-5.8333-5.8333z" fill="#a259ff"/><path d="m13 13.8333c0-3.22 2.6133-5.8333 5.8333-5.8333h5.8334v11.6667h-5.8334c-3.22 0-5.8333-2.6134-5.8333-5.8334z" fill="#f24e1e"/><path d="m24.6641 8h5.8333c3.2201 0 5.8334 2.6133 5.8334 5.8333s-2.6133 5.8334-5.8334 5.8334h-5.8333z" fill="#ff7262"/><path d="m36.3308 25.4998c0 3.22-2.6133 5.8333-5.8334 5.8333-3.22 0-5.8333-2.6133-5.8333-5.8333s2.6133-5.8333 5.8333-5.8333c3.2201 0 5.8334 2.6133 5.8334 5.8333z" fill="#1abcfe"/></g></svg>

<svg width="50" height="50" viewBox="0 0 50 50" fill="none" xmlns="http://www.w3.org/2000/svg">
<rect width="50" height="50" fill="#252525"/>
<path d="M18.8333 43C22.0533 43 24.6667 40.3867 24.6667 37.1667V31.3333H18.8333C15.6133 31.3333 13 33.9467 13 37.1667C13 40.3867 15.6133 43 18.8333 43Z" fill="#0ACF83"/>
<path d="M13 25.5C13 22.28 15.6133 19.6667 18.8333 19.6667H24.6667V31.3333H18.8333C15.6133 31.3333 13 28.72 13 25.5Z" fill="#A259FF"/>
<path d="M13 13.8333C13 10.6133 15.6133 8 18.8333 8H24.6667V19.6667H18.8333C15.6133 19.6667 13 17.0533 13 13.8333Z" fill="#F24E1E"/>
<path d="M24.666 8H30.4993C33.7194 8 36.3327 10.6133 36.3327 13.8333C36.3327 17.0533 33.7194 19.6667 30.4993 19.6667H24.666V8Z" fill="#FF7262"/>
<path d="M36.3327 25.5C36.3327 28.72 33.7194 31.3333 30.4993 31.3333C27.2793 31.3333 24.666 28.72 24.666 25.5C24.666 22.28 27.2793 19.6667 30.4993 19.6667C33.7194 19.6667 36.3327 22.28 36.3327 25.5Z" fill="#1ABCFE"/>
</svg>
